images/50600655.svg

<?xml version="1.0" encoding="UTF-8"?>
<svg xmlns="http://www.w3.org/2000/svg" xmlns:xlink="http://www.w3.org/1999/xlink" width="300pt" height="300pt" viewBox="0 0 300 300" version="1.1">
<defs>
<g>
<symbol overflow="visible" id="glyph0-0">
<path style="stroke:none;" d="M 0.453125 1.59375 L 0.453125 -6.34375 L 4.953125 -6.34375 L 4.953125 1.59375 Z M 0.953125 1.09375 L 4.453125 1.09375 L 4.453125 -5.84375 L 0.953125 -5.84375 Z M 0.953125 1.09375 "/>
</symbol>
<symbol overflow="visible" id="glyph0-1">
<path style="stroke:none;" d="M 4.8125 -6.34375 L 4.8125 -5.484375 C 4.476562 -5.640625 4.160156 -5.753906 3.859375 -5.828125 C 3.566406 -5.910156 3.28125 -5.953125 3 -5.953125 C 2.507812 -5.953125 2.132812 -5.859375 1.875 -5.671875 C 1.613281 -5.484375 1.484375 -5.21875 1.484375 -4.875 C 1.484375 -4.582031 1.570312 -4.363281 1.75 -4.21875 C 1.925781 -4.070312 2.253906 -3.953125 2.734375 -3.859375 L 3.28125 -3.75 C 3.9375 -3.625 4.421875 -3.398438 4.734375 -3.078125 C 5.054688 -2.765625 5.21875 -2.34375 5.21875 -1.8125 C 5.21875 -1.175781 5.003906 -0.691406 4.578125 -0.359375 C 4.148438 -0.0351562 3.523438 0.125 2.703125 0.125 C 2.390625 0.125 2.054688 0.0859375 1.703125 0.015625 C 1.359375 -0.046875 1 -0.148438 0.625 -0.296875 L 0.625 -1.203125 C 0.976562 -1.003906 1.328125 -0.851562 1.671875 -0.75 C 2.023438 -0.644531 2.367188 -0.59375 2.703125 -0.59375 C 3.203125 -0.59375 3.585938 -0.691406 3.859375 -0.890625 C 4.140625 -1.085938 4.28125 -1.375 4.28125 -1.75 C 4.28125 -2.070312 4.179688 -2.320312 3.984375 -2.5 C 3.785156 -2.675781 3.460938 -2.8125 3.015625 -2.90625 L 2.46875 -3.015625 C 1.8125 -3.148438 1.332031 -3.359375 1.03125 -3.640625 C 0.738281 -3.921875 0.59375 -4.3125 0.59375 -4.8125 C 0.59375 -5.382812 0.796875 -5.835938 1.203125 -6.171875 C 1.609375 -6.515625 2.171875 -6.6875 2.890625 -6.6875 C 3.203125 -6.6875 3.515625 -6.65625 3.828125 -6.59375 C 4.148438 -6.539062 4.476562 -6.457031 4.8125 -6.34375 Z M 4.8125 -6.34375 "/>
</symbol>
<symbol overflow="visible" id="glyph0-2">
<path style="stroke:none;" d="M 0.890625 -6.5625 L 2.078125 -6.5625 L 4.984375 -1.078125 L 4.984375 -6.5625 L 5.84375 -6.5625 L 5.84375 0 L 4.65625 0 L 1.75 -5.484375 L 1.75 0 L 0.890625 0 Z M 0.890625 -6.5625 "/>
</symbol>
<symbol overflow="visible" id="glyph0-3">
<path style="stroke:none;" d="M 0.890625 -6.5625 L 1.765625 -6.5625 L 1.765625 -3.875 L 5 -3.875 L 5 -6.5625 L 5.890625 -6.5625 L 5.890625 0 L 5 0 L 5 -3.125 L 1.765625 -3.125 L 1.765625 0 L 0.890625 0 Z M 0.890625 -6.5625 "/>
</symbol>
<symbol overflow="visible" id="glyph0-4">
<path style="stroke:none;" d="M 0.890625 -6.5625 L 4.65625 -6.5625 L 4.65625 -5.8125 L 1.765625 -5.8125 L 1.765625 -3.875 L 4.375 -3.875 L 4.375 -3.140625 L 1.765625 -3.140625 L 1.765625 0 L 0.890625 0 Z M 0.890625 -6.5625 "/>
</symbol>
</g>
</defs>
<g id="surface24581">
<rect x="0" y="0" width="300" height="300" style="fill:rgb(100%,100%,100%);fill-opacity:1;stroke:none;"/>
<path style="fill:none;stroke-width:1.2;stroke-linecap:butt;stroke-linejoin:miter;stroke:rgb(80%,80%,0%);stroke-opacity:1;stroke-miterlimit:10;" d="M 127.589844 152.515625 L 137.394531 146.726562 "/>
<path style="fill:none;stroke-width:1.2;stroke-linecap:butt;stroke-linejoin:miter;stroke:rgb(0%,0%,0%);stroke-opacity:1;stroke-miterlimit:10;" d="M 137.394531 146.726562 L 147.199219 140.933594 "/>
<path style="fill:none;stroke-width:1.2;stroke-linecap:butt;stroke-linejoin:miter;stroke:rgb(0%,0%,0%);stroke-opacity:1;stroke-miterlimit:10;" d="M 110.515625 137.449219 L 119.054688 144.984375 "/>
<path style="fill:none;stroke-width:1.2;stroke-linecap:butt;stroke-linejoin:miter;stroke:rgb(80%,80%,0%);stroke-opacity:1;stroke-miterlimit:10;" d="M 119.054688 144.984375 L 127.589844 152.515625 "/>
<path style=" stroke:none;fill-rule:nonzero;fill:rgb(100%,100%,100%);fill-opacity:1;" d="M 124.589844 147.015625 L 130.589844 147.015625 L 130.589844 158.015625 L 124.589844 158.015625 Z M 124.589844 147.015625 "/>
<g style="fill:rgb(80%,80%,0%);fill-opacity:1;">
  <use xlink:href="#glyph0-1" x="124.589844" y="155.678711"/>
</g>
<path style="fill:none;stroke-width:1.2;stroke-linecap:butt;stroke-linejoin:miter;stroke:rgb(0%,0%,0%);stroke-opacity:1;stroke-miterlimit:10;" d="M 147.199219 140.933594 L 142.242188 118.707031 "/>
<path style="fill:none;stroke-width:1.2;stroke-linecap:butt;stroke-linejoin:miter;stroke:rgb(0%,0%,0%);stroke-opacity:1;stroke-miterlimit:10;" d="M 141.472656 139.878906 L 137.507812 122.097656 "/>
<path style="fill:none;stroke-width:1.2;stroke-linecap:butt;stroke-linejoin:miter;stroke:rgb(0%,0%,0%);stroke-opacity:1;stroke-miterlimit:10;" d="M 147.199219 140.933594 L 168.09375 149.988281 "/>
<path style="fill:none;stroke-width:1.2;stroke-linecap:butt;stroke-linejoin:miter;stroke:rgb(0%,0%,0%);stroke-opacity:1;stroke-miterlimit:10;" d="M 142.242188 118.707031 L 130.90625 117.628906 "/>
<path style="fill:none;stroke-width:1.2;stroke-linecap:butt;stroke-linejoin:miter;stroke:rgb(0%,0%,100%);stroke-opacity:1;stroke-miterlimit:10;" d="M 130.90625 117.628906 L 119.570312 116.554688 "/>
<path style="fill:none;stroke-width:1.2;stroke-linecap:butt;stroke-linejoin:miter;stroke:rgb(0%,0%,100%);stroke-opacity:1;stroke-miterlimit:10;" d="M 119.570312 116.554688 L 115.042969 127 "/>
<path style="fill:none;stroke-width:1.2;stroke-linecap:butt;stroke-linejoin:miter;stroke:rgb(0%,0%,0%);stroke-opacity:1;stroke-miterlimit:10;" d="M 115.042969 127 L 110.515625 137.449219 "/>
<path style="fill:none;stroke-width:1.2;stroke-linecap:butt;stroke-linejoin:miter;stroke:rgb(0%,0%,100%);stroke-opacity:1;stroke-miterlimit:10;" d="M 123.582031 120.773438 L 119.960938 129.132812 "/>
<path style="fill:none;stroke-width:1.2;stroke-linecap:butt;stroke-linejoin:miter;stroke:rgb(0%,0%,0%);stroke-opacity:1;stroke-miterlimit:10;" d="M 119.960938 129.132812 L 116.335938 137.488281 "/>
<path style=" stroke:none;fill-rule:nonzero;fill:rgb(100%,100%,100%);fill-opacity:1;" d="M 116.570312 111.054688 L 123.570312 111.054688 L 123.570312 122.054688 L 116.570312 122.054688 Z M 116.570312 111.054688 "/>
<g style="fill:rgb(0%,0%,100%);fill-opacity:1;">
  <use xlink:href="#glyph0-2" x="116.570312" y="119.717773"/>
</g>
<path style="fill:none;stroke-width:1.2;stroke-linecap:butt;stroke-linejoin:miter;stroke:rgb(0%,0%,0%);stroke-opacity:1;stroke-miterlimit:10;" d="M 110.515625 137.449219 L 99.402344 139.929688 "/>
<path style="fill:none;stroke-width:1.2;stroke-linecap:butt;stroke-linejoin:miter;stroke:rgb(0%,0%,100%);stroke-opacity:1;stroke-miterlimit:10;" d="M 99.402344 139.929688 L 88.289062 142.40625 "/>
<path style="fill:none;stroke-width:1.2;stroke-linecap:butt;stroke-linejoin:miter;stroke:rgb(0%,0%,100%);stroke-opacity:1;stroke-miterlimit:10;" d="M 88.289062 142.40625 L 80.585938 134.023438 "/>
<path style="fill:none;stroke-width:1.2;stroke-linecap:butt;stroke-linejoin:miter;stroke:rgb(0%,0%,0%);stroke-opacity:1;stroke-miterlimit:10;" d="M 80.585938 134.023438 L 72.882812 125.636719 "/>
<path style=" stroke:none;fill-rule:nonzero;fill:rgb(100%,100%,100%);fill-opacity:1;" d="M 81.289062 136.90625 L 95.289062 136.90625 L 95.289062 147.90625 L 81.289062 147.90625 Z M 81.289062 136.90625 "/>
<g style="fill:rgb(0%,0%,100%);fill-opacity:1;">
  <use xlink:href="#glyph0-2" x="81.289062" y="145.569336"/>
  <use xlink:href="#glyph0-3" x="88.266602" y="145.569336"/>
</g>
<path style="fill:none;stroke-width:1.2;stroke-linecap:butt;stroke-linejoin:miter;stroke:rgb(0%,0%,0%);stroke-opacity:1;stroke-miterlimit:10;" d="M 72.882812 125.636719 L 50.65625 130.59375 "/>
<path style="fill:none;stroke-width:1.2;stroke-linecap:butt;stroke-linejoin:miter;stroke:rgb(0%,0%,0%);stroke-opacity:1;stroke-miterlimit:10;" d="M 50.65625 130.59375 L 35.25 113.824219 "/>
<path style="fill:none;stroke-width:1.2;stroke-linecap:butt;stroke-linejoin:miter;stroke:rgb(0%,0%,0%);stroke-opacity:1;stroke-miterlimit:10;" d="M 168.09375 149.988281 L 169.394531 161.300781 "/>
<path style="fill:none;stroke-width:1.2;stroke-linecap:butt;stroke-linejoin:miter;stroke:rgb(0%,0%,100%);stroke-opacity:1;stroke-miterlimit:10;" d="M 169.394531 161.300781 L 170.699219 172.609375 "/>
<path style="fill:none;stroke-width:1.2;stroke-linecap:butt;stroke-linejoin:miter;stroke:rgb(0%,0%,0%);stroke-opacity:1;stroke-miterlimit:10;" d="M 173.675781 151.636719 L 174.71875 160.6875 "/>
<path style="fill:none;stroke-width:1.2;stroke-linecap:butt;stroke-linejoin:miter;stroke:rgb(0%,0%,100%);stroke-opacity:1;stroke-miterlimit:10;" d="M 174.71875 160.6875 L 175.761719 169.734375 "/>
<path style="fill:none;stroke-width:1.2;stroke-linecap:butt;stroke-linejoin:miter;stroke:rgb(0%,0%,0%);stroke-opacity:1;stroke-miterlimit:10;" d="M 186.382812 136.417969 L 168.09375 149.988281 "/>
<path style="fill:none;stroke-width:1.2;stroke-linecap:butt;stroke-linejoin:miter;stroke:rgb(0%,0%,100%);stroke-opacity:1;stroke-miterlimit:10;" d="M 170.699219 172.609375 L 181.148438 177.136719 "/>
<path style="fill:none;stroke-width:1.2;stroke-linecap:butt;stroke-linejoin:miter;stroke:rgb(0%,0%,0%);stroke-opacity:1;stroke-miterlimit:10;" d="M 181.148438 177.136719 L 191.59375 181.664062 "/>
<path style=" stroke:none;fill-rule:nonzero;fill:rgb(100%,100%,100%);fill-opacity:1;" d="M 167.699219 167.109375 L 174.699219 167.109375 L 174.699219 178.109375 L 167.699219 178.109375 Z M 167.699219 167.109375 "/>
<g style="fill:rgb(0%,0%,100%);fill-opacity:1;">
  <use xlink:href="#glyph0-2" x="167.699219" y="175.772461"/>
</g>
<path style="fill:none;stroke-width:1.2;stroke-linecap:butt;stroke-linejoin:miter;stroke:rgb(0%,0%,0%);stroke-opacity:1;stroke-miterlimit:10;" d="M 191.59375 181.664062 L 200.738281 174.878906 "/>
<path style="fill:none;stroke-width:1.2;stroke-linecap:butt;stroke-linejoin:miter;stroke:rgb(0%,0%,100%);stroke-opacity:1;stroke-miterlimit:10;" d="M 200.738281 174.878906 L 209.882812 168.097656 "/>
<path style="fill:none;stroke-width:1.2;stroke-linecap:butt;stroke-linejoin:miter;stroke:rgb(0%,0%,0%);stroke-opacity:1;stroke-miterlimit:10;" d="M 190.230469 176.003906 L 197.546875 170.578125 "/>
<path style="fill:none;stroke-width:1.2;stroke-linecap:butt;stroke-linejoin:miter;stroke:rgb(0%,0%,100%);stroke-opacity:1;stroke-miterlimit:10;" d="M 197.546875 170.578125 L 204.863281 165.148438 "/>
<path style="fill:none;stroke-width:1.2;stroke-linecap:butt;stroke-linejoin:miter;stroke:rgb(0%,0%,0%);stroke-opacity:1;stroke-miterlimit:10;" d="M 191.59375 181.664062 L 194.203125 204.289062 "/>
<path style="fill:none;stroke-width:1.2;stroke-linecap:butt;stroke-linejoin:miter;stroke:rgb(0%,0%,100%);stroke-opacity:1;stroke-miterlimit:10;" d="M 209.882812 168.097656 L 208.582031 156.785156 "/>
<path style="fill:none;stroke-width:1.2;stroke-linecap:butt;stroke-linejoin:miter;stroke:rgb(0%,0%,0%);stroke-opacity:1;stroke-miterlimit:10;" d="M 208.582031 156.785156 L 207.277344 145.472656 "/>
<path style=" stroke:none;fill-rule:nonzero;fill:rgb(100%,100%,100%);fill-opacity:1;" d="M 206.882812 162.597656 L 213.882812 162.597656 L 213.882812 173.597656 L 206.882812 173.597656 Z M 206.882812 162.597656 "/>
<g style="fill:rgb(0%,0%,100%);fill-opacity:1;">
  <use xlink:href="#glyph0-2" x="206.882812" y="171.260742"/>
</g>
<path style="fill:none;stroke-width:1.2;stroke-linecap:butt;stroke-linejoin:miter;stroke:rgb(0%,0%,0%);stroke-opacity:1;stroke-miterlimit:10;" d="M 207.277344 145.472656 L 186.382812 136.417969 "/>
<path style="fill:none;stroke-width:1.2;stroke-linecap:butt;stroke-linejoin:miter;stroke:rgb(0%,0%,0%);stroke-opacity:1;stroke-miterlimit:10;" d="M 203.058594 149.484375 L 186.339844 142.242188 "/>
<path style="fill:none;stroke-width:1.2;stroke-linecap:butt;stroke-linejoin:miter;stroke:rgb(0%,0%,0%);stroke-opacity:1;stroke-miterlimit:10;" d="M 207.277344 145.472656 L 225.566406 131.902344 "/>
<path style="fill:none;stroke-width:1.2;stroke-linecap:butt;stroke-linejoin:miter;stroke:rgb(0%,0%,0%);stroke-opacity:1;stroke-miterlimit:10;" d="M 225.566406 131.902344 L 246.460938 140.957031 "/>
<path style="fill:none;stroke-width:1.2;stroke-linecap:butt;stroke-linejoin:miter;stroke:rgb(0%,0%,0%);stroke-opacity:1;stroke-miterlimit:10;" d="M 229.785156 127.894531 L 246.503906 135.136719 "/>
<path style="fill:none;stroke-width:1.2;stroke-linecap:butt;stroke-linejoin:miter;stroke:rgb(0%,0%,0%);stroke-opacity:1;stroke-miterlimit:10;" d="M 222.960938 109.28125 L 225.566406 131.902344 "/>
<path style="fill:none;stroke-width:1.2;stroke-linecap:butt;stroke-linejoin:miter;stroke:rgb(0%,0%,0%);stroke-opacity:1;stroke-miterlimit:10;" d="M 246.460938 140.957031 L 264.75 127.390625 "/>
<path style="fill:none;stroke-width:1.2;stroke-linecap:butt;stroke-linejoin:miter;stroke:rgb(0%,0%,0%);stroke-opacity:1;stroke-miterlimit:10;" d="M 264.75 127.390625 L 262.144531 104.765625 "/>
<path style="fill:none;stroke-width:1.2;stroke-linecap:butt;stroke-linejoin:miter;stroke:rgb(0%,0%,0%);stroke-opacity:1;stroke-miterlimit:10;" d="M 259.167969 125.738281 L 257.082031 107.640625 "/>
<path style="fill:none;stroke-width:1.2;stroke-linecap:butt;stroke-linejoin:miter;stroke:rgb(0%,0%,0%);stroke-opacity:1;stroke-miterlimit:10;" d="M 262.144531 104.765625 L 241.246094 95.710938 "/>
<path style="fill:none;stroke-width:1.2;stroke-linecap:butt;stroke-linejoin:miter;stroke:rgb(0%,0%,0%);stroke-opacity:1;stroke-miterlimit:10;" d="M 241.246094 95.710938 L 222.960938 109.28125 "/>
<path style="fill:none;stroke-width:1.2;stroke-linecap:butt;stroke-linejoin:miter;stroke:rgb(0%,0%,0%);stroke-opacity:1;stroke-miterlimit:10;" d="M 242.613281 101.371094 L 227.980469 112.226562 "/>
<path style="fill:none;stroke-width:1.2;stroke-linecap:butt;stroke-linejoin:miter;stroke:rgb(0%,0%,0%);stroke-opacity:1;stroke-miterlimit:10;" d="M 222.960938 109.28125 L 212.511719 104.753906 "/>
<path style="fill:none;stroke-width:1.2;stroke-linecap:butt;stroke-linejoin:miter;stroke:rgb(20%,80%,80%);stroke-opacity:1;stroke-miterlimit:10;" d="M 212.511719 104.753906 L 202.0625 100.226562 "/>
<path style=" stroke:none;fill-rule:nonzero;fill:rgb(100%,100%,100%);fill-opacity:1;" d="M 196.0625 94.726562 L 202.0625 94.726562 L 202.0625 105.726562 L 196.0625 105.726562 Z M 196.0625 94.726562 "/>
<g style="fill:rgb(20%,80%,80%);fill-opacity:1;">
  <use xlink:href="#glyph0-4" x="196.0625" y="103.389648"/>
</g>
</g>
</svg>

<svg xmlns="http://www.w3.org/2000/svg" xmlns:xlink="http://www.w3.org/1999/xlink" width="300pt" height="300pt" viewBox="0 0 300 300"><defs><symbol overflow="visible"><path d="M.453 1.594v-7.938h4.5v7.938zm.5-.5h3.5v-6.938h-3.5zm0 0"/></symbol><symbol overflow="visible" id="a"><path d="M4.813-6.344v.86c-.336-.157-.653-.27-.954-.344-.294-.082-.58-.125-.86-.125-.492 0-.867.094-1.125.28-.262.19-.39.454-.39.798 0 .293.085.512.265.656.176.15.504.267.984.36l.547.11c.658.125 1.142.352 1.454.672.32.312.485.734.485 1.265 0 .637-.216 1.122-.642 1.454-.43.325-1.055.485-1.875.485-.312 0-.648-.04-1-.11C1.36-.046 1-.147.625-.296v-.906c.352.2.703.35 1.047.453.35.105.695.156 1.03.156.5 0 .884-.097 1.157-.297.28-.196.42-.485.42-.86 0-.32-.1-.57-.296-.75-.2-.176-.523-.313-.968-.406l-.547-.11C1.81-3.148 1.33-3.36 1.03-3.64.74-3.923.595-4.313.595-4.813c0-.57.203-1.024.61-1.36.405-.344.968-.516 1.687-.516.313 0 .626.032.938.094.32.055.65.137.985.25zm0 0"/></symbol><symbol overflow="visible" id="b"><path d="M.89-6.563H2.08l2.906 5.485v-5.484h.86V0H4.656L1.75-5.484V0H.89zm0 0"/></symbol><symbol overflow="visible" id="c"><path d="M.89-6.563h.876v2.688H5v-2.688h.89V0H5v-3.125H1.766V0H.89zm0 0"/></symbol><symbol overflow="visible" id="d"><path d="M.89-6.563h3.766v.75h-2.89v1.938h2.61v.734h-2.61V0H.89zm0 0"/></symbol></defs><g><path fill="#fff" d="M0 0h300v300H0z"/><path d="M127.59 152.516l9.805-5.79" stroke-width="1.2" stroke="#cc0" stroke-miterlimit="10" fill="none"/><path d="M137.395 146.727l9.804-5.793M110.516 137.45l8.54 7.534" stroke-width="1.2" stroke="#000" stroke-miterlimit="10" fill="none"/><path d="M119.055 144.984l8.535 7.532" stroke-width="1.2" stroke="#cc0" stroke-miterlimit="10" fill="none"/><path d="M124.59 147.016h6v11h-6zm0 0" fill="#fff"/><use xlink:href="#a" x="124.59" y="155.679" fill="#cc0"/><path d="M147.2 140.934l-4.958-22.227M141.473 139.88l-3.965-17.782M147.2 140.934l20.894 9.054M142.242 118.707l-11.336-1.078" stroke-width="1.2" stroke="#000" stroke-miterlimit="10" fill="none"/><path d="M130.906 117.63l-11.336-1.075M119.57 116.555L115.043 127" stroke-width="1.2" stroke="#00f" stroke-miterlimit="10" fill="none"/><path d="M115.043 127l-4.527 10.45" stroke-width="1.2" stroke="#000" stroke-miterlimit="10" fill="none"/><path d="M123.582 120.773l-3.62 8.36" stroke-width="1.2" stroke="#00f" stroke-miterlimit="10" fill="none"/><path d="M119.96 129.133l-3.624 8.355" stroke-width="1.2" stroke="#000" stroke-miterlimit="10" fill="none"/><path d="M116.57 111.055h7v11h-7zm0 0" fill="#fff"/><use xlink:href="#b" x="116.57" y="119.718" fill="#00f"/><path d="M110.516 137.45l-11.114 2.48" stroke-width="1.2" stroke="#000" stroke-miterlimit="10" fill="none"/><path d="M99.402 139.93l-11.113 2.476M88.29 142.406l-7.704-8.383" stroke-width="1.2" stroke="#00f" stroke-miterlimit="10" fill="none"/><path d="M80.586 134.023l-7.703-8.386" stroke-width="1.2" stroke="#000" stroke-miterlimit="10" fill="none"/><path d="M81.29 136.906h14v11h-14zm0 0" fill="#fff"/><g fill="#00f"><use xlink:href="#b" x="81.289" y="145.569"/><use xlink:href="#c" x="88.267" y="145.569"/></g><path d="M72.883 125.637l-22.227 4.957M50.656 130.594l-15.406-16.77M168.094 149.988l1.3 11.313" stroke-width="1.2" stroke="#000" stroke-miterlimit="10" fill="none"/><path d="M169.395 161.3l1.304 11.31" stroke-width="1.2" stroke="#00f" stroke-miterlimit="10" fill="none"/><path d="M173.676 151.637l1.043 9.05" stroke-width="1.2" stroke="#000" stroke-miterlimit="10" fill="none"/><path d="M174.72 160.688l1.042 9.046" stroke-width="1.2" stroke="#00f" stroke-miterlimit="10" fill="none"/><path d="M186.383 136.418l-18.29 13.57" stroke-width="1.2" stroke="#000" stroke-miterlimit="10" fill="none"/><path d="M170.7 172.61l10.448 4.527" stroke-width="1.2" stroke="#00f" stroke-miterlimit="10" fill="none"/><path d="M181.148 177.137l10.446 4.527" stroke-width="1.2" stroke="#000" stroke-miterlimit="10" fill="none"/><path d="M167.7 167.11h7v11h-7zm0 0" fill="#fff"/><use xlink:href="#b" x="167.699" y="175.772" fill="#00f"/><path d="M191.594 181.664l9.144-6.785" stroke-width="1.2" stroke="#000" stroke-miterlimit="10" fill="none"/><path d="M200.738 174.88l9.145-6.782" stroke-width="1.2" stroke="#00f" stroke-miterlimit="10" fill="none"/><path d="M190.23 176.004l7.317-5.426" stroke-width="1.2" stroke="#000" stroke-miterlimit="10" fill="none"/><path d="M197.547 170.578l7.316-5.43" stroke-width="1.2" stroke="#00f" stroke-miterlimit="10" fill="none"/><path d="M191.594 181.664l2.61 22.625" stroke-width="1.2" stroke="#000" stroke-miterlimit="10" fill="none"/><path d="M209.883 168.098l-1.3-11.313" stroke-width="1.2" stroke="#00f" stroke-miterlimit="10" fill="none"/><path d="M208.582 156.785l-1.305-11.312" stroke-width="1.2" stroke="#000" stroke-miterlimit="10" fill="none"/><path d="M206.883 162.598h7v11h-7zm0 0" fill="#fff"/><use xlink:href="#b" x="206.883" y="171.261" fill="#00f"/><path d="M207.277 145.473l-20.894-9.055M203.06 149.484l-16.72-7.242M207.277 145.473l18.29-13.57M225.566 131.902l20.895 9.055M229.785 127.895l16.72 7.242M222.96 109.28l2.606 22.622M246.46 140.957l18.29-13.566M264.75 127.39l-2.605-22.624M259.168 125.738l-2.086-18.097M262.145 104.766l-20.9-9.055M241.246 95.71l-18.285 13.57M242.613 101.37l-14.633 10.857M222.96 109.28l-10.448-4.526" stroke-width="1.2" stroke="#000" stroke-miterlimit="10" fill="none"/><path d="M212.512 104.754l-10.45-4.527" stroke-width="1.2" stroke="#3cc" stroke-miterlimit="10" fill="none"/><path d="M196.063 94.727h6v11h-6zm0 0" fill="#fff"/><use xlink:href="#d" x="196.063" y="103.39" fill="#3cc"/></g></svg>
